X:67
T:Brosna Slide
R:slide
Z:id:hn-slide-67
M:6/8
L:1/8
K:G
D2G G2A | BAB d2B | A2D FED | A2D FED |
D2G G2A | BAB d2B | A2D FED |1 G3 G2E :|2 G3 GBd ||
|: g2f efg | f2e d2B | c2B A2B | c2d e2f |
g2f efg | f2e d2B | c2A F2A |1 G3 GBd :|2 G3 GFE ||
<end>
<start>
